X:125
T: Richmudis von Adocht
N: Q0112
O: Mitteleuropa, Deutschland
R: Ballade, Schein - Tod, Grab, Auferstehen
M: 3/8
L: 1/16
K: G
D2 | G4G2 | A2A2d2 | c4_B2 | A4
_B2 | G2A2_B2 | A2G2F2 | G4A2 | D4
d2 | d2c2_B2 | c2A2dc | _B2B2A2 | G4
D2 | G2A2_Bc | d2G2_BA | G2G2F2 | G4
d2 | d2c2_B2 | c2A2dc | _B2B2A2 | G4
D2 | G2A2_Bc | d2G2_BA | G2G2F2 | G4

@@@ Tune index: 1418
